!!!COM: Scriabin, Alexander
!!!OTL@@FR: Prelude
!!!OTL@@EN:
!!!OPR@@FR: 5 Preludes
!!!OPR@@EN:
!!!OPS: 74
!!!ONM: 4
!!!ODT: 1914
!!!AGN: Prelude
**kern	**kern	**dynam
*staff2	*staff1	*staff1/2
*Ipiano	*Ipiano	*
*clefF4	*clefG2	*
*k[]	*k[]	*
*M3/4	*M3/4	*
*^	*^	*
4A	4C#X	4ccn	4e	.
=1	=1	=1	=1	=1
4G#X	2F	4.b	4cn	.
4A	.	.	4d#X	.
.	.	8g#X	.	.
4A	4C#X	8dd#XL	[4e	.
.	.	8ccnJ	.	.
=2	=2	=2	=2	=2
*	*	*	*^	*
4A#X	4F#X	4an	8eL]	4ryy	.
.	.	.	8d#XJ	.	.
8BL	8FnL	8g-XL	8dnL	8ryy	.
8G#XJ	8DnJ	8aJ	8fnJ	[8a\	.
4A#	4C#X	8dd#XL	8eL	4a\]	.
.	.	8ccnJ	8g#XJ	.	.
=3	=3	=3	=3	=3	=3
4A#X	2F#X	4ee	4d#X	12gn\L	.
.	.	.	.	12b#X\	.
.	.	.	.	12bn\J	.
4dn	.	4gg	4dn	4a#X\	.
4c#X	4E#X	8gg#XL	4rc	4an\	.
.	.	8ffnJ	.	.	.
*	*	*	*v	*v	*
=4	=4	=4	=4	=4
6cn	6En	2aa	8g#XL	.
.	.	.	8gnJ	.
6B	6D#X	.	.	.
.	.	.	8f#XL	.
6B-X	6Dn	.	.	.
.	.	.	8fnJ	.
4A	4C#X	8gg#XL	4e	.
.	.	8ccnJ	.	.
=5	=5	=5	=5	=5
4G#X	2F	4.b	4cn	.
4A	.	.	4d#X	.
.	.	8g#X	.	.
4A	4C#X	8dd#XL	[4e	.
.	.	8ccnJ	.	.
=6	=6	=6	=6	=6
*	*	*	*^	*
4A#X	4F#X	4an	8eL]	4ryy	.
.	.	.	8d#XJ	.	.
8BL	8FnL	8g-XL	8dnL	8ryy	.
8G#XJ	8DnJ	8aJ	8fnJ	[8a\	.
4A#	4C#X	8dd#XL	4e	8.a\L]	.
.	.	8ccnJ	.	.	.
.	.	.	.	16g#X\Jk	.
=7	=7	=7	=7	=7	=7
4A#X	2F#X	4ee	4d#X	12gn\L	.
.	.	.	.	12b#X\	.
.	.	.	.	12bn\J	.
4dn	.	4gg	4dn	8a#X\L	.
.	.	.	.	8an\J	.
4d-X	4Fn	8ggL	4a-X	8r	.
.	.	8ff-XJ	.	8cc\	.
=8	=8	=8	=8	=8	=8
4dn	2B-X	4aa-X	4g	12cc-X\L	.
.	.	.	.	12ee\	.
.	.	.	.	12ee-X\J	.
4g-X	.	4ccc-X	4g-X	4dd\	.
4f	4A	8cccnL	4rc	4dd-X\	.
.	.	8aanJ	.	.	.
*	*	*	*v	*v	*
=9	=9	=9	=9	=9
6f-X	6A-X	2ddd-X	8ccL	.
.	.	.	8cc-XJ	.
6e-X	6G	.	.	.
.	.	.	8b-XL	.
6e--	6G-X	.	.	.
.	.	.	8b--J	.
4d-X	4F	8ggL	4a-X	.
.	.	8ccnJ 8ff-X	.	.
=10	=10	=10	=10	=10
*	*	*	*^	*
4dn	2B-X	4aa-X	4gn	12cc-X\L	.
.	.	.	.	12ee\	.
.	.	.	.	12ee-X\J	.
4g-X	.	4ccc-X	4g-X	4dd\	.
4f	4A	8cccnL	4rc	4dd-X\	.
.	.	8aanJ	.	.	.
*	*	*	*v	*v	*
=11	=11	=11	=11	=11
6f-X	6A-X	2ddd-X	8cc	.
.	.	.	4cc-X	.
6e-X	6G	.	.	.
6f-	6A-	.	.	.
.	.	.	8ccn	.
4fn	4An	8cccL	4dd-X	.
.	.	8aanJ	.	.
=12	=12	=12	=12	=12
6f-X	6A-X	2ddd-X	8cc	.
.	.	.	4cc-X	.
6e-X	6G	.	.	.
6f-	6A-	.	.	.
.	.	.	8ccn	.
4fn	4An	8cccL	4dd-X	.
.	.	8aanJ	.	.
=13	=13	=13	=13	=13
4f-X	4A-X	4ddd-X	4cc	.
4e-X	4G	8aa-XL	4cc-X	.
.	.	8ffnJ	.	.
4dn	4F#X	4aan	4b-X	.
=14	=14	=14	=14	=14
4d-X	4Fn	8eenL	4a	.
.	.	8dd-XJ	.	.
4c	4E	4ff	4a-X	.
4c#X	4E#X	8gg#XL	4an	.
.	.	8ffJ	.	.
=15	=15	=15	=15	=15
4cn	4En	4aa	4g#X	.
4B	4D#X	8eeL	4gn	.
.	.	8cc#XJ	.	.
4B-X	4Dn	4ff	4g-X	.
=16	=16	=16	=16	=16
4A	4C#X	8ccnL	4f	.
.	.	8aJ	.	.
[2G#X	[2BB#X	[2dd-X	[2e	.
=17	=17	=17	=17	=17
2G#]	2BB#]	2dd-]	2e]	.
8G#XL	8BB#XL	8dd#XL	4e	.
8AJ	8C#XJ	8ccnJ	.	.
=18	=18	=18	=18	=18
4G#X	[2.F	4.b	4c	.
[2A	.	.	[2d#X	.
.	.	[8g#X	.	.
.	.	4g#_	.	.
=19	=19	=19	=19	=19
2A]	2F]	2g#]	2d#]	.
4A	4C#X	8dd#XL	[4e	.
.	.	8ccnJ	.	.
=20	=20	=20	=20	=20
4A#X	4F#X	4an	8eL]	.
.	.	.	8d#XJ	.
8BL	8FnL	8g-XL	8dnL	.
[8G#XJ	[8DnJ	[8aJ	[8fJ	.
4G#_	4D_	4a_	4f_	.
=21	=21	=21	=21	=21
2G#]	2D]	2a]	2f]	.
8AL	4D	8eeL	4f	.
8B-XJ	.	8aJ 8dd-X	.	.
=22	=22	=22	=22	=22
4Bn	4G	4b-X	8fL	.
.	.	.	8eJ	.
[2c	[2F#X	[2g	[2e-X	.
=23	=23	=23	=23	=23
4c]	4F#]	4g]	4e-]	.
2A	2D#X	2b-X	2f#X	.
=24	=24	=24	=24	=24
2.cn	2.AA 2.E	2.cc#X	2.a	.
*v	*v	*	*	*
*	*v	*v	*
==	==	==
*-	*-	*-
!!!system-decoration: {(*)}
!!!ENC: Bryan Jacob Bell
!!!END: November 2021 to April 2022
!!!PED: Günter Philipp
!!!PTL: Ausgewählte Klavierwerke (Edition Peters)
